!!!OTL: Tanhaeuser.
!!!ARE: Europa, Mitteleuropa, Deutschland
!!!SCT: A0021
!!!TXL: @@GMH
!!!YEM: Copyright 1995, estate of Helmut Schaffrath.
**kern	**text
*M4/1	*
*met(c|)	*
*clefC4	*
*k[b-]	*
*F:ion	*
=1	=1
!LO:TX:a:t=jon.	!
1ryy	.
{1F	.
1F	Woll
1F	wir
=2	=2
1G	a-
1A	-ber
1B-	he-
1B-	-ben
=3	=3
*lig	*
!LO:N:vis=0	!
1A	an
!LO:N:vis=0	!
1G	.
*Xlig	*
1r}	.
{1G	den
=4	=4
1c	Dan-
1c	-hauſer
1B-	.
1F	ʒu
=5	=5
*lig	*
!LO:N:vis=0	!
1G	ſin-
!LO:N:vis=0	!
1A	.
*Xlig	*
1B-	-gen,
1r}	.
=6	=6
{1G	was
1B-	er
1.A	wun-
2G	-ders
=7	=7
1c	hat
1B-	ge-
0A	-tan
=8	=8
1r}	.
!LO:TX:a:t=NB.	!
{1G	[mit
1A	ſei-
1B-	-ner
=9	=9
1c	Ve-
1F	-nu-
0G	-ſin-
=10	=10
00F/ll}	-nen.]
==	==
!!!GTL: Balladen und Romanzen (erzählende Volkslieder)
!!!AGN: Romanze, Ballade, Lied
!! Die Melodie des alten, echten Volksliedes vom Tanhaeuser habe
!!    ich gluecklicherweise gefunden im 8. Quodlibet bei W. Schmeltzel
!!    1544. Die vierte, fehlende Zeile habe ich musikalisch zu ergaen-
!!    zen versucht.
!!!ONB: ESAC (Essen Associative Code) Database: ALTDEU
!!!AMT: simple quadruple
!!!AIN: vox
!!!EED: Helmut Schaffrath
!!!EEV: 1.0
!!!RDF**kern: l = terminal long
!!!AMD: Ionian
!!!URL-scan: https://rosdok.uni-rostock.de/mcrviewer/recordIdentifier/rosdok_ppn738218359/iview2/phys_0154.iview2?x=-955.4044398057085&y=115.350760430214&scale=0.35505986316989735&rotation=0&layout=singlePageLayout&logicalDiv=log_0007
!!!ENC: Anna Maria Matuszewska
!!!EEV: 2024/16/02
*-	*-
